X:1
T:Title
%%score [ ( 1 2 ) ( 3 4 ) ]
L:1/8
Q:1/4=120
M:3/4
K:E
V:1 treble nm="Midi_74" snm=" "
V:2 treble 
V:3 bass nm="Midi_74"
V:4 bass 
V:1
"^John Gay (1685-1732)\nfrom \"The Beggar's Opera\"" A2 G2 F2 | E4 B2 |"^Fill ev'ry glass" e4 B2 | %3
w: Fill ev- 'ry|Glass, for|Wine in-|
 c2 G2 A2 | B2 E2 F2 |"^French carol,\narr. A.S." G4 A2 |[M:3/4] B2 B,4 | E6 | e2 d2 e2 | c4 B2 | %10
w: spires us, And|fires us With|Cou- rage,|Love and|Joy.|Wo- men and|Wine should|
 e2 c4 | B6 | A2 G2 F2 | E4 F2 | G2 A4 | (B3 c) B2 | A2 G2 F2 | E4 B2 | e4 B2 | c2 G2 A2 | %20
w: Life em-|ploy.|Is there ought|else on|Earth de-|si * rous?|Fill ev- 'ry|Glass, for|Wine in-|spires us, And|
 B2 E2 F2 | G4 A2 | B2 B,4 | E6 |] %24
w: fires us With|Cou- rage,|Love and|Joy.|
V:2
 E2 E2 E2 | E4 (ED) | C4 (ED) | C2 E2 E2 | E2 D2 C2 | E4 F2 |[M:3/4] E2 (C2 D2) | E6 | B2 (AG) F2 | %9
 (E2 A2) (GF) | E2 (B2 A2) | (G2 FE D2) | E2 B,2 B,2 | (C2 E2) (DC) | B,4 E2 | D4 F2 | E2 E2 E2 | %17
 E4 (ED) | C4 (ED) | C2 E2 E2 | E2 D2 C2 | E4 F2 | E2 (C2 D2) | E6 |] %24
V:3
 C2 B,2 (B,A,) | G,4 B,2 | (A,2 B,2) A,2 | A,2 B,2 A,2 | G,2 G,2 F,2 | G,4 C2 | %6
[M:3/4] G,2 (A,2 B,2) | G,6 | G,2 A,2 (A,B,) | (C2 E2) D2 | E2 (F3 E) | (D2 C2 B,2) | C2 B,2 F,2 | %13
 (G,2 C2) (B,A,) | G,2 (F,2 E,2) | F,4 B,2 | C2 B,2 (B,A,) | %17
"^This edition  Andrew Sims 2015" G,4 B,2 | (A,2 B,2) A,2 | A,2 B,2 A,2 | G,2 G,2 F,2 | G,4 C2 | %22
 G,2 (A,2 B,2) | G,6 |] %24
V:4
 E,2 E,2 B,,2 | C,4 G,2 | (F,2 G,2) F,2 | E,2 D,2 C,2 | B,,2 C,2 A,,2 | C,4 A,,2 | %6
[M:3/4] C,2 B,,4 | E,6 | E,2 F,2 (F,G,) | A,4 B,2 | C2 F,4 | (G,2 A,2 B,2) | C,D, E,2 D,2 | %13
 C,4 D,2 | E,2 (D,2 C,2) | B,,4 D,2 | C,2 E,2 B,,2 | C,4 G,2 | (F,2 G,2) F,2 | E,2 D,2 C,2 | %20
 B,,2 C,2 A,,2 | C,4 A,,2 | C,2 B,,4 | E,6 |] %24

